!!!!SEGMENT: pl-kc--40102-iii-1-saf--001-014_zielenski-mikolaj--offertoria-totius-anni-in-festo-s-matthiae-apostoli-constitues-eos.krn
!!!cenid: 16xx:1492
!!!COM: Zieleński, Mikołaj
!!!COM-rismid: pe30013481
!!!CDT:
!!!CNT: Polish
!!!GTL: Offertoria totius anni
!!!OTL: In festo S. Matthiae Apostoli/Constitues eos
!!!OMV: 014
!!!PDT: 1611
!!!AGN:
!!!SMS-siglum: PL-Kc
!!!SMS-shelfmark: 40102 III/1 Saf.
!!!SMS-shelfwork: 001-014 G
!!!SMS-variant:
!!!SMS-altvar:
!!!NIFC-rismid: 990069886
!!!URL-scan: https://cyfrowe.mnk.pl/dlibra/publication/24235/edition/23926/content?ref=desc
!!!ONB-nifc: UWAGA: str. 14-15. Uwaga: W xml metrum 2/1 do źródłowego C| i odpowiednio 3/1 do 3/2
**kern	**kern	**kern	**kern
*group1	*group1	*group1	*group1
*part4	*part3	*part2	*part1
*staff4	*staff3	*staff2	*staff1
*I""Organo	*I""Organo	*I""Organo	*I""Organo
*I''org	*I''org	*I''org	*I''org
*Iorgan	*Iorgan	*Iorgan	*Iorgan
*ICklav	*ICklav	*ICklav	*ICklav
*clefF4	*clefC3	*clefC3	*clefG2
*k[b-]	*k[b-]	*k[b-]	*k[b-]
*F:	*F:	*F:	*F:
*M2/1	*M2/1	*M2/1	*M2/1
*met(c|)	*met(c|)	*met(c|)	*met(c|)
=1	=1	=1	=1
!	!	!LO:TX:a:t=Conſtitues eos.	!LO:TX:a:t=In feſto S. Matthiae Apoſtoli. A 7.
1r	1r	1F	1cc
1FF	1c	2F/	2cc\
.	.	2G/	2b-/
=2-	=2-	=2-	=2-
2FF/	2c/	2A/	2a/
2FF/	2B-/	2B-/	2f/
2FF/	2A/	1c	1b-
2FF/	2F/	.	.
=3	=3	=3	=3
1C	1G	2r	2r
.	.	2c/	2cc\
0r	0r	2c/	2cc\
.	.	2B-/	2dd\
=4-	=4-	=4-	=4-
.	.	2A/	2ee\
.	.	2F/	2ff\
2r	2r	1G	1dd
2GG/	2g\	.	.
=5	=5	=5	=5
2GG/	2g\	0r	0r
2AA/	2.f\	.	.
2BB-/	.	.	.
.	4e\	.	.
2C/	4e\	.	.
.	8d\	.	.
.	8c\	.	.
=6-	=6-	=6-	=6-
1GG	2d\	1r	1r
.	2d\	.	.
1C	1e	2r	2r
.	.	2G/	[<2cc\
=7	=7	=7	=7
1FF	1f	2F/	2cc\]
.	.	2G/	2b-/
2FF/	1.c	1.A	1.a
2GG/	.	.	.
=8-	=8-	=8-	=8-
2AA/	.	.	.
2BB-/	1G	2d\	4g/
.	.	.	4f/
2C/	.	2c/	4e/
.	.	.	4c/
2FF/	2c/	[y2f\	2cc\
=9	=9	=9	=9
!	!	!LO:N:xstem:cue	!
1C	1c	4f\]	2cc\
.	.	8e\	.
.	.	8d\	.
.	.	2e\	2g/
1FF	2c/	2f\	2a/
*	*	*	*lig
.	2r	2d\	1dd\
=10-	=10-	=10-	=10-
1r	1r	1e-X	.
.	.	.	1cc
2r	2r	[y1d	.
*	*	*	*Xlig
[<2D/	[<2f\	.	2b-
=11	=11	=11	=11
!	!	!LO:N:vis=xstem:cue	!
2D/]	2f\]	2d]	1a
1C	2e\	2r	.
.	1d	2r	2r
!LO:N:acc=#	!	!	!
*	*	*	*lig
2BBn/	.	2d\	1dd
=12-	=12-	=12-	=12-
1C	1c	1e-X	.
.	.	.	1cc
1GG	2.g\	1d	.
*	*	*	*Xlig
.	.	.	2b-/
.	4g\	.	.
=13	=13	=13	=13
2C/	2e\	1c	0cc
1FF	1f	.	.
.	.	1r	.
2F\	2c/	.	.
=14-	=14-	=14-	=14-
2D/	2d\	0r	0r
2D/	2f\	.	.
2.E-X\	[1e-X	.	.
4D/	.	.	.
=15	=15	=15	=15
4C/	(1e-]	1r	1r
4BB-/	.	.	.
2C/	.	.	.
1BB-	1d)	2r	2r
.	.	1B-	1f
=16-	=16-	=16-	=16-
0r	0r	.	.
.	.	2A/	2cc\
.	.	2d\	2a/
.	.	4d\	2a/
.	.	4c/	.
=17	=17	=17	=17
1r	1r	4B-/	1dd
.	.	4A/	.
.	.	2B-/	.
2r	2r	2A/	2cc\
1AA	1a	4A/	1ee
.	.	4B-/	.
=18-	=18-	=18-	=18-
.	.	2c/	.
2D/	2f\	2F/	2ff\
2.BB-/	1f	4B-/	[y1dd
.	.	4c/	.
.	.	4d\	.
4C/	.	4e\	.
=19	=19	=19	=19
!	!	!	!LO:N:vis=xstem:cue
4D/	2f\	2f\	2dd\]
4E\	.	.	.
4F\	1f	2c/	2cc\
4FF/	.	.	.
2C/	.	0c	0cc
1C	4e\	.	.
.	4d\	.	.
=20-	=20-	=20-	=20-
.	1e	.	.
2C/	.	.	.
2FF/	1f	[<1c	[1cc
[2F\	.	.	.
=21	=21	=21	=21
4F\]	2r	1c]	1cc]
4F\	.	.	.
2E\	2.c/	.	.
2F\	.	1r	1r
.	4c/	.	.
2D/	2.f\	.	.
=22-	=22-	=22-	=22-
*lig	*	*	*
1C	.	0r	0r
.	4f\	.	.
.	2e\	.	.
*col*	*	*	*
2.D\	2f\	.	.
*Xlig	*	*	*
*Xcol	*	*	*
.	2d\	.	.
4E\	.	.	.
=23	=23	=23	=23
2F\	4c/	00r	00r
.	4B-/	.	.
2FF/	4c/	.	.
.	4d\	.	.
1C	2e\	.	.
.	2e\	.	.
=24-	=24-	=24-	=24-
2GG/	2d\	.	.
2GG/	1g	.	.
2.D/	.	.	.
.	2f\	.	.
4C/	.	.	.
=25	=25	=25	=25
2BB-/	2f\	1r	0r
2BB-/	2g\	.	.
1FF	1a	2r	.
.	.	2.f\	.
=26-	=26-	=26-	=26-
0r	0r	.	2r
.	.	4f\	.
.	.	2e\	2.cc\
.	.	2f\	.
.	.	.	4cc\
!	!	!	!LO:N:acc=#
.	.	2d\	2bn/
=27	=27	=27	=27
0r	0r	2c/	2cc\
.	.	2.c/	2a/
.	.	.	2.g/
.	.	4c/	.
!	!	!LO:N:acc=#	!
.	.	2Bn/	.
.	.	.	4g/
*custos:F	*custos:c	*custos:c	*custos:g
!!LO:LB:g=original
=28-	=28-	=28-	=28-
2r	2r	2c/	2g/
2.F\	2c/	2A/	2a/
.	2d\	1G	2b-/
4F\	.	.	.
2E\	4c/	.	[<2cc\
.	4B-/	.	.
=29	=29	=29	=29
2F\	4A/	2F/	2cc\]
.	4G/	.	.
2D/	4A/	2.f\	2dd\
.	4B-/	.	.
2C/	4c/	.	1g
.	4G/	4f\	.
2.C/	2c/	2e\	.
=30-	=30-	=30-	=30-
.	2d\	2f\	1r
4C/	.	.	.
!LO:N:acc=#	!	!	!
2BBn/	2.g\	2d\	.
2C/	.	2e\	2r
.	4g\	.	.
2AA/	2f#X\	2c/	[y2cc\
=31	=31	=31	=31
!	!	!	!LO:N:xstem:cue
1GG	2g\	2G/	4cc\]
.	.	.	4cc\
!	!	!	!LO:N:acc=#
.	2d\	2d\	2bn/
1.C	4e\	1.c	2cc\
.	8d\	.	.
.	8c\	.	.
.	2.f\	.	2a/
=32-	=32-	=32-	=32-
.	.	.	2.g/
.	8e\	.	.
.	8d\	.	.
2C/	4e\	2c/	.
.	4f\	.	4a/
1GG	2g\	2B-/	2b-y/
.	2d\	2B-/	2g/
=33	=33	=33	=33
2.D/	2d\	1.d	2a/
.	1f	.	1dd
4C/	.	.	.
2BB-/	.	.	.
2C/	1e	1G	1cc
=34-	=34-	=34-	=34-
1.GG	.	.	.
!	!	!	!LO:N:acc=#
.	4d\	2.g\	4bn/
.	4c/	.	4a/
!	!	!	!LO:N:acc=#
.	2d\	.	2bn/
.	.	4f\	.
2GG/	2g\	2d\	2b/
=35	=35	=35	=35
*M3/2	*M3/2	*M3/2	*M3/2
0.C	0.e	0e	0cc
.	.	1c	1ee
=36-	=36-	=36-	=36-
00.r	00.r	0c	0ee
.	.	1c	1ee
=37-	=37-	=37-	=37-
.	.	1B-	1dd
.	.	1A	1cc
.	.	1A	1cc
=38-	=38-	=38-	=38-
!	!	!	!LO:N:acc=#
1r	1r	0.G	0bn
1r	1r	.	.
1GG	1g	.	1g
=39	=39	=39	=39
0G	0g	00.r	0b-
1G	1g	.	1b-
=40-	=40-	=40-	=40-
1F	1d	.	1a
1E-X	1d	.	1g
!	!LO:N:acc=#	!	!
1E-	1c#X	.	1g
=41-	=41-	=41-	=41-
0.D	0.d	1r	0f#X
.	.	1r	.
.	.	1d	1dd
=42-	=42-	=42-	=42-
0.r	0.r	0B-	0ff
.	.	1B-	1ff
=43	=43	=43	=43
00.r	00.r	1c	1ee
.	.	1d	1dd
.	.	1B-	1dd
=44-	=44-	=44-	=44-
.	.	0f	0cc
.	.	1F	1cc
=45-	=45-	=45-	=45-
00.r	00.r	1.A	1.cc
.	.	2B-/	4b-/
.	.	.	4a/
.	.	1c	1g
=46-	=46-	=46-	=46-
.	.	1G	1b-
.	.	0d	0a
=47	=47	=47	=47
1r	1r	0.G	0.g
1r	1r	.	.
1GG	1g	.	.
=48-	=48-	=48-	=48-
0E-X	0g	00.r	00.r
1E-	1g	.	.
=49-	=49-	=49-	=49-
1D	1f	.	.
1C	1e-X	.	.
1C	1e-	.	.
=50-	=50-	=50-	=50-
0BB-	0d	1r	1r
.	.	1r	1r
1BB-	1f	1f	1dd
=51	=51	=51	=51
0BB-	0f	0b-	0ff
1BB-	1f	1b-	1ff
=52-	=52-	=52-	=52-
1C	1c	1g	1ee
1D	1f	1f	1dd
1BB-	1f	1f	1dd
=53-	=53-	=53-	=53-
0F	0c	0.f	0.cc
1FF	1a	.	.
=54-	=54-	=54-	=54-
1.AA	1.a	0.r	0.r
2BB-/	4g\	.	.
.	4f\	.	.
1C	1e	.	.
=55	=55	=55	=55
1GG	1g	0.r	0.r
0E-X	0g	.	.
=56-	=56-	=56-	=56-
0D	0f#X	1r	1r
.	.	1r	1r
1BB-	1d	1f	1dd
=57-	=57-	=57-	=57-
1.BB-	1.d	1.f	1.dd
2BB-/	2d\	2f\	2dd\
1FF	1a	1f	1ff
=58-	=58-	=58-	=58-
1CC	0g	1g	1ee
0GG	.	0g	0dd
.	1G	.	.
=59	=59	=59	=59
*M2/1	*M2/1	*M2/1	*M2/1
*met(c|)	*met(c|)	*met(c|)	*met(c|)
2CC/	2G/	2g\	2ee\
2FF/	2A/	2f\	2cc\
2.BB-/	2.d\	2.f\	2.dd\
4BB-/	4d\	4f\	4dd\
=60-	=60-	=60-	=60-
2AA/	2c/	2a\	4ee\
.	.	.	4cc\
2FF/	2c/	2a\	2.ff\
1C	1c	1g	.
.	.	.	8ee\
.	.	.	8dd\
.	.	.	2ee\
*custos:FF	*custos:c	*custos:g	*custos:ff
!!LO:LB:g=original
=61	=61	=61	=61
2FF/	1.c	1g	1ff
2.F\	.	.	.
.	.	1r	1r
4F\	.	.	.
2E\	2.c/	.	.
=62-	=62-	=62-	=62-
2F\	.	0r	0r
.	4c/	.	.
2D/	2.f\	.	.
1C	.	.	.
.	4f\	.	.
.	2e\	.	.
=63	=63	=63	=63
2.D/	2f\	00r	00r
.	2d\	.	.
4E\	.	.	.
2F\	4c/	.	.
.	4B-/	.	.
2FF/	4c/	.	.
.	4d\	.	.
=64-	=64-	=64-	=64-
1C	2e\	.	.
.	2e\	.	.
2GG/	2d\	.	.
2GG/	[<2g\	.	.
=65	=65	=65	=65
2.D/	2g\]	0r	0r
.	2f\	.	.
4C/	.	.	.
2BB-/	2f\	.	.
2BB-/	2g\	.	.
=66-	=66-	=66-	=66-
1FF	1a	2r	1r
.	.	2.f\	.
1r	1r	.	2r
.	.	4f\	.
.	.	2e\	[<2cc\
=67	=67	=67	=67
0r	0r	2f\	4cc\]
.	.	.	4cc\
!	!	!	!LO:N:acc=#
.	.	2d\	2bn/
.	.	2c/	2cc\
.	.	2.c/	2a/
=68-	=68-	=68-	=68-
1r	1r	.	2.g/
.	.	4c/	.
!	!	!LO:N:acc=#	!
.	.	2Bn/	.
.	.	.	4g/
2r	2r	2c/	2g/
[y2F\	2c/	2A/	2a/
=69	=69	=69	=69
!LO:N:xstem:cue	!	!	!LO:N:acc=#
4F\]	2d\	1G	2bn/
4F\	.	.	.
2E\	4c/	.	1cc
.	4B-/	.	.
2F\	4A/	2F/	.
.	4G/	.	.
2D/	4A/	2.f\	2dd\
.	4B-/	.	.
=70-	=70-	=70-	=70-
2C/	4c/	.	1g
.	4G/	4f\	.
2.C/	2c/	2e\	.
.	2d\	2f\	1r
4C/	.	.	.
!LO:N:acc=#	!	!	!
2BBn/	[y2g\	2d\	.
=71	=71	=71	=71
!	!LO:N:xstem:cue	!	!
2C/	4g\]	2e\	2r
.	4g\	.	.
2AA/	2f#X\	2c/	2.cc\
1GG	2g\	2G/	.
.	.	.	4cc\
!	!	!	!LO:N:acc=#
.	2d\	2d\	2bn/
=72-	=72-	=72-	=72-
1.C	4e\	1c	2cc\
.	8d\	.	.
.	8e\	.	.
.	2.fny\	.	2a/
.	.	2r	2.g/
.	8e\	.	.
.	8d\	.	.
2C/	4e\	2c/	.
.	4f\	.	4a/
=73	=73	=73	=73
1GG	2g\	2B-/	2b-/
.	2d\	2B-/	2g/
2.D/	2d\	1.d	2a/
.	1f	.	1dd
4C/	.	.	.
=74-	=74-	=74-	=74-
2BB-/	.	.	.
2C/	1e	1G	1cc
[y1GG	.	.	.
!	!	!	!LO:N:acc=#
.	4d\	[y2g\	4bn/
.	4c/	.	4a/
=75	=75	=75	=75
!LO:N:vis=xstem:cue	!	!LO:N:xstem:cue	!LO:N:acc=#
2GG/]	2d\	4g\]	2bn/
.	.	4f\	.
2GG/	2g\	2d\	2b/
=76-	=76-	=76-	=76-
*M3/2	*M3/2	*M3/2	*M3/2
0.C	0.e	0e	0cc
.	.	1c	1ee
=77-	=77-	=77-	=77-
00.r	00.r	0c	0ee
.	.	1c	1ee
=78-	=78-	=78-	=78-
.	.	1B-	1dd
.	.	1A	1cc
.	.	1A	1cc
=79	=79	=79	=79
!	!	!	!LO:N:acc=#
1r	1r	0.G	0bn
1r	1r	.	.
1GG	1g	.	1g
=80-	=80-	=80-	=80-
0G	0g	00.r	0b
1G	1g	.	1b
=81-	=81-	=81-	=81-
1F	1d	.	1a
1E-X	1d	.	1g
1E-	1c#X	.	1g
=82-	=82-	=82-	=82-
!LO:N:vis=0	!	!	!
0.D	0.d	1r	0f#X
.	.	1r	.
.	.	1d	1dd
=83	=83	=83	=83
00.r	00.r	0B-	0ff
.	.	1B-	1ff
=84-	=84-	=84-	=84-
.	.	1c	1ee
.	.	1d	1dd
.	.	1B-	1dd
=85-	=85-	=85-	=85-
00.r	00.r	0f	0cc
.	.	1F	1cc
=86-	=86-	=86-	=86-
.	.	1.A	1.cc
.	.	2B-/	4b-/
.	.	.	4a/
.	.	1c	1g
=87	=87	=87	=87
0.r	0.r	1G	1b-
.	.	0d	0a
=88-	=88-	=88-	=88-
1r	1r	0.G	0.g
1r	1r	.	.
1BB-	1g	.	.
=89-	=89-	=89-	=89-
0E-X	0g	00.r	00.r
1E-	1g	.	.
=90-	=90-	=90-	=90-
1D	1f	.	.
1C	1e-X	.	.
1C	1e-	.	.
=91	=91	=91	=91
0BB-	0d	1r	1r
.	.	1r	1r
!	!	!LO:TX:t=P:problem:brak nuty lub pauzy	!
1BB-	1f	1ryy	1dd
=92-	=92-	=92-	=92-
0BB-	0f	0b-	0ff
1BB-	1f	1b-	1ff
=93-	=93-	=93-	=93-
1C	1c	1g	1ee
1D	1f	1f	1dd
1BB-	1f	1f	1dd
=94-	=94-	=94-	=94-
0F	0c	0.f	0.cc
! 	!	!	!
1FF	1a	.	.
*custos:AA	*custos:a	*custos:f	*custos:dd
!!LO:PB:g=original
=95	=95	=95	=95
!	!	!	!LO:N:vis=0r
1.AA	1.a	00.r	00.r
2BB-/	4g\	.	.
.	4f\	.	.
1C	1e	.	.
=96-	=96-	=96-	=96-
1GG	1g	.	.
0E-X	0g	.	.
=97-	=97-	=97-	=97-
0D	0f#X	1r	1r
.	.	1r	1r
1BB-	1d	1f	1dd
=98-	=98-	=98-	=98-
1.BB-	1.d	1.f	1.dd
2BB-/	2d\	2f\	2dd\
1FF	1a	1f	1ff
=99	=99	=99	=99
1CC	0g	1g	1ee
0GG	.	0g	0dd
.	1G	.	.
=100-	=100-	=100-	=100-
*M2/1	*M2/1	*M2/1	*M2/1
*met(c|)	*met(c|)	*met(c|)	*met(c|)
2CC/	2G/	2g\	2ee\
2FF/	2A/	2f\	2cc\
2.BB-/	2.d\	2.f\	2.dd\
4BB-/	4d\	4f\	4dd\
=101-	=101-	=101-	=101-
2AA/	2c/	2a\	4ee\
.	.	.	4cc\
2FF/	2c/	2a\	2.ff\
1C	1c	1g	.
.	.	.	8ee\
.	.	.	8dd\
.	.	.	2ee\
=102-	=102-	=102-	=102-
0FFl	0cl	0al	0ffl
==	==	==	==
*-	*-	*-	*-
!!!system-decoration: *
!!!RDF**kern: > = above
!!!RDF**kern: < = below
!!!RDF**kern: l = terminal long
!!!AIN: 4 organ
!!!ENC: Anastazja Marusiak
!!!END: 2021-12-10
!!!ENC: Marta Lawrence
!!!END: 2021-12-19
